static/fa/svgs/solid/hands-holding-child.svg

<svg xmlns="http://www.w3.org/2000/svg" viewBox="0 0 640 512"><!--! Font Awesome Free 6.1.1 by @fontawesome - https://fontawesome.com License - https://fontawesome.com/license/free (Icons: CC BY 4.0, Fonts: SIL OFL 1.1, Code: MIT License) Copyright 2022 Fonticons, Inc.--><path d="M280 40c0-22.09 17.9-40 40-40s40 17.91 40 40-17.9 40-40 40-40-17.91-40-40zm95.8 213c1.7 13.2-7.7 25.2-21.7 26.8-12.3 1.7-24.3-7.7-25.9-21.7l-4.4-35h-7.6l-4.4 35c-1.6 14-13.6 23.4-26.8 21.7-13.1-1.6-22.5-13.6-20.8-26.8l11.1-88.7-19.8 15.8c-10.1 9.5-25.3 8.2-33.8-1.9-8.6-10.2-7.3-25.3 2.8-33.9l41.5-35.1c10.1-8.5 22.9-13.2 36.2-13.2h35.6c13.3 0 26.1 4.7 35.3 13.2l42.4 35.1c10.1 8.6 11.4 23.7 2.8 33.9-8.5 10.1-23.7 11.4-33.8 1.9l-19.8-15.8 11.1 88.7zM80 258.7l60.3 80.3c9.4 12.6 27.4 14.8 39.6 4.8 10.5-8.7 13.2-24.7 6.1-35.5l-21.4-35.8c-8.7-14.5-4.7-33.2 9.1-42.8 13.9-9.6 32.8-6.8 42.4 6.3l47.4 58.1c15.8 19 24.5 44.5 24.5 70V480c0 17.7-14.3 32-32 32h-96c-9.7 0-18.9-4.4-25-12.9L14.02 348.8C4.946 337.4 0 323.3 0 308.8V103.1c0-21.19 17.91-40 40-40s40 18.81 40 40v155.6zM640 104v204.8c0 14.5-4.9 28.6-14.9 40l-121 150.3c-5.2 8.5-14.4 12.9-24.1 12.9h-96c-17.7 0-32-14.3-32-32V364.1c0-25.5 8.7-51 24.5-70L423 236c10.5-13.1 29.4-15.9 43.3-6.3 13.8 9.6 17.8 28.3 9.1 42.8l-22.3 35.8c-6.2 10.8-3.5 26.8 7.1 35.5 12.1 10 30.1 7.8 39.5-4.8l60.3-80.3V104c0-22.09 17.9-40 40-40s40 17.91 40 40z"/></svg>

<svg xmlns="http://www.w3.org/2000/svg" viewBox="0 0 640 512"><!--! Font Awesome Free 6.1.1 by @fontawesome - https://fontawesome.com License - https://fontawesome.com/license/free (Icons: CC BY 4.0, Fonts: SIL OFL 1.1, Code: MIT License) Copyright 2022 Fonticons, Inc. --><path d="M280 40C280 17.91 297.9 0 320 0C342.1 0 360 17.91 360 40C360 62.09 342.1 80 320 80C297.9 80 280 62.09 280 40zM375.8 253C377.5 266.2 368.1 278.2 354.1 279.8C341.8 281.5 329.8 272.1 328.2 258.1L323.8 223.1H316.2L311.8 258.1C310.2 272.1 298.2 281.5 285 279.8C271.9 278.2 262.5 266.2 264.2 253L275.3 164.3L255.5 180.1C245.4 189.6 230.2 188.3 221.7 178.2C213.1 168 214.4 152.9 224.5 144.3L266 109.2C276.1 100.7 288.9 96 302.2 96H337.8C351.1 96 363.9 100.7 373.1 109.2L415.5 144.3C425.6 152.9 426.9 168 418.3 178.2C409.8 188.3 394.6 189.6 384.5 180.1L364.7 164.3L375.8 253zM80 258.7L140.3 339C149.7 351.6 167.7 353.8 179.9 343.8C190.4 335.1 193.1 319.1 186 308.3L164.6 272.5C155.9 258 159.9 239.3 173.7 229.7C187.6 220.1 206.5 222.9 216.1 236L263.5 294.1C279.3 313.1 288 338.6 288 364.1V480C288 497.7 273.7 512 256 512H160C150.3 512 141.1 507.6 135 499.1L14.02 348.8C4.946 337.4 0 323.3 0 308.8V103.1C0 81.91 17.91 63.1 40 63.1C62.09 63.1 80 81.91 80 103.1V258.7zM640 104V308.8C640 323.3 635.1 337.4 625.1 348.8L504.1 499.1C498.9 507.6 489.7 512 480 512H384C366.3 512 352 497.7 352 480V364.1C352 338.6 360.7 313.1 376.5 294.1L423 236C433.5 222.9 452.4 220.1 466.3 229.7C480.1 239.3 484.1 258 475.4 272.5L453.1 308.3C446.9 319.1 449.6 335.1 460.2 343.8C472.3 353.8 490.3 351.6 499.7 339L560 258.7V104C560 81.91 577.9 64 600 64C622.1 64 640 81.91 640 104V104z"/></svg>
